source/svgs/bowtie/uE91D-brand-visualstudio.svg

<svg xmlns="http://www.w3.org/2000/svg" viewBox="0 0 448 448"><path d="M336 0l-176 176-117.336-90.664-42.664 26.922v223.742l42.664 26.656 117.336-90.656 176 176 112-48v-357.336l-112-42.664zm-288 288v-128l64 64-64 64zm288 32l-112-96 112-96v192z"/></svg>

<svg xmlns="http://www.w3.org/2000/svg" viewBox="0 0 448 448"><path d="M336 0L160 176 42.664 85.336 0 112.258V336l42.664 26.656L160 272l176 176 112-48V42.664L336 0zM48 288V160l64 64-64 64zm288 32l-112-96 112-96v192z"/></svg>
